X: 1814
T: Prettiest Flower of All (The)
C:F Belasco, (pub c.1885)
B: australian traditional tunes wiki
M:4/4
L:1/8
R: Schottische
Q: 1/4=100
K:D
V:1 
(3afa|"D"b>a f>dA2d2|"A7"c2B3z(3afa|"A7"a>g e>cA2g2|"D"f6(3afa|
"D"b>a f>dA2d2|"A7"c2B3z e>f|g>e c>BA2f2|"D"d6zB|
"D"A>F A>d f>e d>c|"G"B>G B>d g>f e>d|"A7"c>B c>e b>a g>e|g>e- (3ecB "D"A2z2|
"D"A>F A>d f>e d>c|"Em"B>G B>c g>f e>d|"A7"c>B c>e a>g B>c|"D"d2f2d2:||
% abcbook-tune_id 6342d53a4fa48b0029b473dd


% abcbook-boost 0
% abcbook-tablature 
% abcbook-transpose 
% abcbook-lastupdated 1665324385516
% abcbook-soundfonts 
% abcbook-repeats 1
% NFF Book 2018

